X:1801
T:En Dro
O:england
C:Storvan -> Loffet 8
M:4/4
L:1/8
K:G
B2Ac B3A|G2FG ABAG|B2Ac B2BA|1 A2B2 A4:|2 G2B2A3A|]
B2c2 d3d|c2B2A2G2|:B2Ac B3A|G2FG ABAG|B2AB c2BA|G2A2 G4:|


